src/img/svg/icons/contacts/icon-mail.svg

<svg width="28" height="28" viewBox="0 0 28 28" fill="none" xmlns="http://www.w3.org/2000/svg">
<g clip-path="url(#clip0)">
<path d="M25.5392 3.33594H2.46106C2.08224 3.33594 1.72759 3.42907 1.40674 3.58258L13.9454 16.1213L16.7558 13.4204C16.7558 13.4204 16.756 13.4201 16.756 13.42C16.7561 13.4199 16.7563 13.4198 16.7563 13.4198L26.5939 3.5828C26.273 3.42918 25.9181 3.33594 25.5392 3.33594Z" fill="#656565"/>
<path d="M27.7538 4.74292L18.4961 14.0001L27.7534 23.2574C27.9069 22.9366 28.0001 22.5819 28.0001 22.2031V5.79686C28.0001 5.41826 27.9072 5.06366 27.7538 4.74292Z" fill="#656565"/>
<path d="M0.246641 4.74243C0.0931328 5.06328 0 5.41793 0 5.79675V22.203C0 22.5816 0.0930234 22.9363 0.246422 23.257L9.50409 13.9999L0.246641 4.74243Z" fill="#656565"/>
<path d="M17.3361 15.1603L14.5253 17.8614C14.3651 18.0217 14.1552 18.1018 13.9454 18.1018C13.7355 18.1018 13.5256 18.0217 13.3654 17.8614L10.6641 15.1602L1.40625 24.4174C1.72716 24.571 2.08202 24.6642 2.46095 24.6642H25.5391C25.9179 24.6642 26.2725 24.5711 26.5934 24.4176L17.3361 15.1603Z" fill="#656565"/>
</g>
<defs>
<clipPath id="clip0">
<rect width="28" height="28" fill="white"/>
</clipPath>
</defs>
</svg>

<?xml version="1.0" encoding="utf-8"?>
<!-- Generator: Adobe Illustrator 24.0.2, SVG Export Plug-In . SVG Version: 6.00 Build 0)  -->
<svg version="1.1" id="Layer_1" xmlns="http://www.w3.org/2000/svg" xmlns:xlink="http://www.w3.org/1999/xlink" x="0px" y="0px"
	 viewBox="0 0 28 28" enable-background="new 0 0 28 28" xml:space="preserve">
<g>
	<defs>
		<rect id="SVGID_1_" width="28" height="28"/>
	</defs>
	<clipPath id="SVGID_2_">
		<use xlink:href="#SVGID_1_"  overflow="visible"/>
	</clipPath>
	<g clip-path="url(#SVGID_2_)">
		<path fill="#656565" d="M25.5,3.3H2.5c-0.4,0-0.7,0.1-1.1,0.2l12.5,12.5l2.8-2.7c0,0,0,0,0,0c0,0,0,0,0,0l9.8-9.8
			C26.3,3.4,25.9,3.3,25.5,3.3z"/>
		<path fill="#656565" d="M27.8,4.7L18.5,14l9.3,9.3c0.2-0.3,0.2-0.7,0.2-1.1V5.8C28,5.4,27.9,5.1,27.8,4.7z"/>
		<path fill="#656565" d="M0.2,4.7C0.1,5.1,0,5.4,0,5.8v16.4c0,0.4,0.1,0.7,0.2,1.1L9.5,14L0.2,4.7z"/>
		<path fill="#656565" d="M17.3,15.2l-2.8,2.7c-0.2,0.2-0.4,0.2-0.6,0.2c-0.2,0-0.4-0.1-0.6-0.2l-2.7-2.7l-9.3,9.3
			c0.3,0.2,0.7,0.2,1.1,0.2h23.1c0.4,0,0.7-0.1,1.1-0.2L17.3,15.2z"/>
	</g>
</g>
</svg>
